_includes/icons/ios-light-on.svg

<svg fill="#666" height="50" viewBox="0 0 50 50" width="50" xmlns="http://www.w3.org/2000/svg"><path d="m24.90625.96875c-.042969.007813-.085937.019531-.125.03125-.464844.105469-.792969.523438-.78125 1v4c-.003906.359375.183594.695313.496094.878906.3125.179688.695312.179688 1.007812 0 .3125-.183593.5-.519531.496094-.878906v-4c.011719-.289062-.105469-.566406-.3125-.761719-.210937-.199218-.496094-.296875-.78125-.269531zm-14.875 6.15625c-.03125.007813-.0625.019531-.09375.03125-.359375.074219-.648437.34375-.753906.695313-.105469.351562-.007813.734375.253906.992187l2.84375 2.84375c.242188.296875.628906.433594 1.003906.347656.371094-.085937.664063-.378906.75-.75.085938-.375-.050781-.761718-.347656-1.003906l-2.84375-2.84375c-.1875-.199219-.445312-.308594-.71875-.3125-.03125 0-.0625 0-.09375 0zm29.71875 0c-.042969.007813-.085937.019531-.125.03125-.179687.046875-.339844.144531-.46875.28125l-2.84375 2.84375c-.296875.242188-.433594.628906-.347656 1.003906.085937.371094.378906.664063.75.75.375.085938.761719-.050781 1.003906-.347656l2.84375-2.84375c.3125-.296875.402344-.761719.21875-1.152344-.1875-.394531-.601562-.621093-1.03125-.566406zm-14.75 1.875c-7.71875 0-14 6.28125-14 14 0 4.890625 2.191406 8.175781 4.25 10.59375 1.03125 1.207031 2.027344 2.230469 2.71875 3.125s1.03125 1.609375 1.03125 2.28125v3.53125c-.132812.277344-.132812.597656 0 .875v.59375c0 1.644531 1.355469 3 3 3h.78125c.550781.609375 1.335938 1 2.21875 1 .882813 0 1.667969-.390625 2.21875-1h.78125c1.644531 0 3-1.355469 3-3v-.8125c.027344-.132812.027344-.273437 0-.40625v-3.78125c0-.671875.339844-1.394531 1.03125-2.28125s1.6875-1.890625 2.71875-3.09375c2.058594-2.40625 4.25-5.691406 4.25-10.625 0-7.71875-6.28125-14-14-14zm0 2c6.640625 0 12 5.359375 12 12 0 4.359375-1.808594 7.078125-3.75 9.34375-.96875 1.132813-1.972656 2.121094-2.78125 3.15625-.59375.761719-1.019531 1.59375-1.25 2.5h-8.4375c-.230469-.90625-.65625-1.734375-1.25-2.5-.808594-1.042969-1.8125-2.046875-2.78125-3.1875-1.941406-2.277344-3.75-5-3.75-9.3125 0-6.640625 5.359375-12 12-12zm-21.28125 11c-.550781.078125-.9375.589844-.859375 1.140625s.589844.9375 1.140625.859375h4c.359375.003906.695313-.183594.878906-.496094.179688-.3125.179688-.695312 0-1.007812-.183593-.3125-.519531-.5-.878906-.496094h-4c-.03125 0-.0625 0-.09375 0s-.0625 0-.09375 0-.0625 0-.09375 0zm38 0c-.550781.078125-.9375.589844-.859375 1.140625s.589844.9375 1.140625.859375h4c.359375.003906.695313-.183594.878906-.496094.179688-.3125.179688-.695312 0-1.007812-.183593-.3125-.519531-.5-.878906-.496094h-4c-.03125 0-.0625 0-.09375 0s-.0625 0-.09375 0-.0625 0-.09375 0zm-28.84375 12c-.226562.03125-.4375.144531-.59375.3125l-2.84375 2.84375c-.296875.242188-.433594.628906-.347656 1.003906.085937.371094.378906.664063.75.75.375.085938.761719-.050781 1.003906-.347656l2.84375-2.84375c.296875-.285156.386719-.726562.226563-1.105469-.15625-.378906-.535157-.621093-.945313-.613281-.03125 0-.0625 0-.09375 0zm23.9375 0c-.375.066406-.675781.339844-.78125.703125-.105469.367188.003906.757813.28125 1.015625l2.84375 2.84375c.242188.296875.628906.433594 1.003906.347656.371094-.085937.664063-.378906.75-.75.085938-.375-.050781-.761718-.347656-1.003906l-2.84375-2.84375c-.1875-.199219-.445312-.308594-.71875-.3125-.03125 0-.0625 0-.09375 0s-.0625 0-.09375 0zm-15.8125 6h8v2h-5c-.03125 0-.0625 0-.09375 0s-.0625 0-.09375 0c-.550781.050781-.957031.542969-.90625 1.09375s.542969.957031 1.09375.90625h5c0 .566406-.433594 1-1 1h-6c-.566406 0-1-.433594-1-1 .359375.003906.695313-.183594.878906-.496094.179688-.3125.179688-.695312 0-1.007812-.183593-.3125-.519531-.5-.878906-.496094z"/></svg>

<svg xmlns="http://www.w3.org/2000/svg" viewBox="0 0 50 50" width="50" height="50" fill="#666"><path d="M 24.90625 0.96875 C 24.863281 0.976563 24.820313 0.988281 24.78125 1 C 24.316406 1.105469 23.988281 1.523438 24 2 L 24 6 C 23.996094 6.359375 24.183594 6.695313 24.496094 6.878906 C 24.808594 7.058594 25.191406 7.058594 25.503906 6.878906 C 25.816406 6.695313 26.003906 6.359375 26 6 L 26 2 C 26.011719 1.710938 25.894531 1.433594 25.6875 1.238281 C 25.476563 1.039063 25.191406 0.941406 24.90625 0.96875 Z M 10.03125 7.125 C 10 7.132813 9.96875 7.144531 9.9375 7.15625 C 9.578125 7.230469 9.289063 7.5 9.183594 7.851563 C 9.078125 8.203125 9.175781 8.585938 9.4375 8.84375 L 12.28125 11.6875 C 12.523438 11.984375 12.910156 12.121094 13.285156 12.035156 C 13.65625 11.949219 13.949219 11.65625 14.035156 11.285156 C 14.121094 10.910156 13.984375 10.523438 13.6875 10.28125 L 10.84375 7.4375 C 10.65625 7.238281 10.398438 7.128906 10.125 7.125 C 10.09375 7.125 10.0625 7.125 10.03125 7.125 Z M 39.75 7.125 C 39.707031 7.132813 39.664063 7.144531 39.625 7.15625 C 39.445313 7.203125 39.285156 7.300781 39.15625 7.4375 L 36.3125 10.28125 C 36.015625 10.523438 35.878906 10.910156 35.964844 11.285156 C 36.050781 11.65625 36.34375 11.949219 36.714844 12.035156 C 37.089844 12.121094 37.476563 11.984375 37.71875 11.6875 L 40.5625 8.84375 C 40.875 8.546875 40.964844 8.082031 40.78125 7.691406 C 40.59375 7.296875 40.179688 7.070313 39.75 7.125 Z M 25 9 C 17.28125 9 11 15.28125 11 23 C 11 27.890625 13.191406 31.175781 15.25 33.59375 C 16.28125 34.800781 17.277344 35.824219 17.96875 36.71875 C 18.660156 37.613281 19 38.328125 19 39 L 19 42.53125 C 18.867188 42.808594 18.867188 43.128906 19 43.40625 L 19 44 C 19 45.644531 20.355469 47 22 47 L 22.78125 47 C 23.332031 47.609375 24.117188 48 25 48 C 25.882813 48 26.667969 47.609375 27.21875 47 L 28 47 C 29.644531 47 31 45.644531 31 44 L 31 43.1875 C 31.027344 43.054688 31.027344 42.914063 31 42.78125 L 31 39 C 31 38.328125 31.339844 37.605469 32.03125 36.71875 C 32.722656 35.832031 33.71875 34.828125 34.75 33.625 C 36.808594 31.21875 39 27.933594 39 23 C 39 15.28125 32.71875 9 25 9 Z M 25 11 C 31.640625 11 37 16.359375 37 23 C 37 27.359375 35.191406 30.078125 33.25 32.34375 C 32.28125 33.476563 31.277344 34.464844 30.46875 35.5 C 29.875 36.261719 29.449219 37.09375 29.21875 38 L 20.78125 38 C 20.550781 37.09375 20.125 36.265625 19.53125 35.5 C 18.722656 34.457031 17.71875 33.453125 16.75 32.3125 C 14.808594 30.035156 13 27.3125 13 23 C 13 16.359375 18.359375 11 25 11 Z M 3.71875 22 C 3.167969 22.078125 2.78125 22.589844 2.859375 23.140625 C 2.9375 23.691406 3.449219 24.078125 4 24 L 8 24 C 8.359375 24.003906 8.695313 23.816406 8.878906 23.503906 C 9.058594 23.191406 9.058594 22.808594 8.878906 22.496094 C 8.695313 22.183594 8.359375 21.996094 8 22 L 4 22 C 3.96875 22 3.9375 22 3.90625 22 C 3.875 22 3.84375 22 3.8125 22 C 3.78125 22 3.75 22 3.71875 22 Z M 41.71875 22 C 41.167969 22.078125 40.78125 22.589844 40.859375 23.140625 C 40.9375 23.691406 41.449219 24.078125 42 24 L 46 24 C 46.359375 24.003906 46.695313 23.816406 46.878906 23.503906 C 47.058594 23.191406 47.058594 22.808594 46.878906 22.496094 C 46.695313 22.183594 46.359375 21.996094 46 22 L 42 22 C 41.96875 22 41.9375 22 41.90625 22 C 41.875 22 41.84375 22 41.8125 22 C 41.78125 22 41.75 22 41.71875 22 Z M 12.875 34 C 12.648438 34.03125 12.4375 34.144531 12.28125 34.3125 L 9.4375 37.15625 C 9.140625 37.398438 9.003906 37.785156 9.089844 38.160156 C 9.175781 38.53125 9.46875 38.824219 9.839844 38.910156 C 10.214844 38.996094 10.601563 38.859375 10.84375 38.5625 L 13.6875 35.71875 C 13.984375 35.433594 14.074219 34.992188 13.914063 34.613281 C 13.757813 34.234375 13.378906 33.992188 12.96875 34 C 12.9375 34 12.90625 34 12.875 34 Z M 36.8125 34 C 36.4375 34.066406 36.136719 34.339844 36.03125 34.703125 C 35.925781 35.070313 36.035156 35.460938 36.3125 35.71875 L 39.15625 38.5625 C 39.398438 38.859375 39.785156 38.996094 40.160156 38.910156 C 40.53125 38.824219 40.824219 38.53125 40.910156 38.160156 C 40.996094 37.785156 40.859375 37.398438 40.5625 37.15625 L 37.71875 34.3125 C 37.53125 34.113281 37.273438 34.003906 37 34 C 36.96875 34 36.9375 34 36.90625 34 C 36.875 34 36.84375 34 36.8125 34 Z M 21 40 L 29 40 L 29 42 L 24 42 C 23.96875 42 23.9375 42 23.90625 42 C 23.875 42 23.84375 42 23.8125 42 C 23.261719 42.050781 22.855469 42.542969 22.90625 43.09375 C 22.957031 43.644531 23.449219 44.050781 24 44 L 29 44 C 29 44.566406 28.566406 45 28 45 L 22 45 C 21.433594 45 21 44.566406 21 44 C 21.359375 44.003906 21.695313 43.816406 21.878906 43.503906 C 22.058594 43.191406 22.058594 42.808594 21.878906 42.496094 C 21.695313 42.183594 21.359375 41.996094 21 42 Z"/></svg>
